lib/flags/gd-grenada.svg

<svg xmlns="http://www.w3.org/2000/svg" fill="none" aria-hidden="true" viewBox="0 0 42 30"><g id="Country=GD - Grenada, Size=sm (36x24)" filter="url(#filter0_dd_91_28155)"><g clip-path="url(#clip0_91_28155)"><g id="flag"><mask id="mask0_91_28155" width="36" height="24" x="3" y="2" maskUnits="userSpaceOnUse" style="mask-type:alpha"><rect id="mask" width="36" height="24" x="3" y="2" fill="white"/></mask><g mask="url(#mask0_91_28155)"><g id="contents"><path id="background" fill="#C51918" fill-rule="evenodd" d="M3 2H39V26H3V2Z" clip-rule="evenodd"/><g id="top"><path id="top_2" fill="#FECA00" fill-rule="evenodd" d="M9.75 8H32.25V20H9.75V8Z" clip-rule="evenodd"/><mask id="mask1_91_28155" width="24" height="12" x="9" y="8" maskUnits="userSpaceOnUse" style="mask-type:alpha"><path id="top_3" fill="white" fill-rule="evenodd" d="M9.75 8H32.25V20H9.75V8Z" clip-rule="evenodd"/></mask><g mask="url(#mask1_91_28155)"><g id="triangles"><path id="right" fill="#23875F" fill-rule="evenodd" d="M9.75 8L21 14L9.75 20V8Z" clip-rule="evenodd"/><path id="left" fill="#23875F" fill-rule="evenodd" d="M32.25 8L21 14L32.25 20V8Z" clip-rule="evenodd"/><mask id="mask2_91_28155" width="12" height="12" x="21" y="8" maskUnits="userSpaceOnUse" style="mask-type:alpha"><path id="left_2" fill="white" fill-rule="evenodd" d="M32.25 8L21 14L32.25 20V8Z" clip-rule="evenodd"/></mask><g mask="url(#mask2_91_28155)"/></g><path id="Oval 22" fill="#C51918" fill-rule="evenodd" d="M21 18C23.4853 18 25.5 16.2091 25.5 14C25.5 11.7909 23.4853 10 21 10C18.5147 10 16.5 11.7909 16.5 14C16.5 16.2091 18.5147 18 21 18Z" clip-rule="evenodd"/><path id="Star 5" fill="#FECA00" fill-rule="evenodd" d="M20.9206 15.3132L18.5909 16.7497L19.3353 14.2894L17.625 12.7178L19.9408 12.6328L20.9206 10.2L21.9004 12.6328H24.2123L22.506 14.2894L23.3606 16.6044L20.9206 15.3132Z" clip-rule="evenodd"/></g></g><g id="stars"><path id="Combined Shape" fill="#FECA00" fill-rule="evenodd" d="M12.8737 6.44194L14.1469 5.74014L15.4803 6.371L15.0133 5.23993L15.9458 4.43056H14.6823L14.1469 3.24194L13.6114 4.43056L12.3458 4.47208L13.2805 5.23993L12.8737 6.44194ZM19.6237 6.44194L20.8969 5.74014L22.2303 6.371L21.7633 5.23993L22.6958 4.43056H21.4323L20.8969 3.24194L20.3614 4.43056L19.0958 4.47208L20.0305 5.23993L19.6237 6.44194ZM27.6469 5.74014L26.3737 6.44194L26.7805 5.23993L25.8458 4.47208L27.1114 4.43056L27.6469 3.24194L28.1823 4.43056H29.4458L28.5133 5.23993L28.9803 6.371L27.6469 5.74014ZM12.8726 24.1671L14.1458 23.4653L15.4792 24.0961L15.0122 22.9651L15.9447 22.1557H14.6813L14.1458 20.9671L13.6103 22.1557L12.3447 22.1972L13.2794 22.9651L12.8726 24.1671ZM20.8958 23.4653L19.6226 24.1671L20.0294 22.9651L19.0947 22.1972L20.3603 22.1557L20.8958 20.9671L21.4312 22.1557H22.6947L21.7622 22.9651L22.2292 24.0961L20.8958 23.4653ZM26.3726 24.1671L27.6458 23.4653L28.9792 24.0961L28.5122 22.9651L29.4447 22.1557H28.1812L27.6458 20.9671L27.1103 22.1557L25.8447 22.1972L26.7794 22.9651L26.3726 24.1671Z" clip-rule="evenodd"/></g><g id="flame"><path id="Path 71" fill="#C51918" fill-rule="evenodd" d="M12.714 14.7719C12.714 14.7719 13.3199 15.2513 13.6498 15.4146C13.7636 15.0312 13.5098 14.1628 13.5098 14.1628C13.4385 13.9552 12.6572 13.583 12.6572 13.583C12.6572 13.583 12.4378 14.2384 12.714 14.7719Z" clip-rule="evenodd"/><path id="Path 70" fill="#FECA00" fill-rule="evenodd" d="M13.345 15.9302C13.345 15.9302 11.7889 15.2841 11.6307 14.3703C11.4726 13.4565 11.808 11.9998 11.808 11.9998C11.808 11.9998 14.335 12.5109 14.5069 13.6061C14.6788 14.7013 14.1081 15.3894 14.1081 15.3894C14.1081 15.3894 13.5236 14.0543 12.972 13.9062C12.972 13.9062 12.972 15.2293 13.345 15.9302Z" clip-rule="evenodd"/></g></g></g></g></g></g><defs><filter id="filter0_dd_91_28155" width="42" height="30" x="0" y="0" color-interpolation-filters="sRGB" filterUnits="userSpaceOnUse"><feFlood flood-opacity="0" result="BackgroundImageFix"/><feColorMatrix in="SourceAlpha" result="hardAlpha" values="0 0 0 0 0 0 0 0 0 0 0 0 0 0 0 0 0 0 127 0"/><feOffset dy="1"/><feGaussianBlur stdDeviation="1"/><feColorMatrix values="0 0 0 0 0.0627451 0 0 0 0 0.0941176 0 0 0 0 0.156863 0 0 0 0.06 0"/><feBlend in2="BackgroundImageFix" result="effect1_dropShadow_91_28155"/><feColorMatrix in="SourceAlpha" result="hardAlpha" values="0 0 0 0 0 0 0 0 0 0 0 0 0 0 0 0 0 0 127 0"/><feOffset dy="1"/><feGaussianBlur stdDeviation="1.5"/><feColorMatrix values="0 0 0 0 0.0627451 0 0 0 0 0.0941176 0 0 0 0 0.156863 0 0 0 0.1 0"/><feBlend in2="effect1_dropShadow_91_28155" result="effect2_dropShadow_91_28155"/><feBlend in="SourceGraphic" in2="effect2_dropShadow_91_28155" result="shape"/></filter><clipPath id="clip0_91_28155"><rect width="36" height="24" x="3" y="2" fill="white" rx="2"/></clipPath></defs></svg>

<svg xmlns="http://www.w3.org/2000/svg" fill="none" aria-hidden="true" viewBox="0 0 42 30"><g filter="url(#a)"><g clip-path="url(#b)"><mask id="c" width="36" height="24" x="3" y="2" maskUnits="userSpaceOnUse" style="mask-type:alpha"><path fill="#fff" d="M3 2h36v24H3z"/></mask><g mask="url(#c)"><path fill="#C51918" fill-rule="evenodd" d="M3 2h36v24H3V2Z" clip-rule="evenodd"/><path fill="#FECA00" fill-rule="evenodd" d="M9.75 8h22.5v12H9.75V8Z" clip-rule="evenodd"/><mask id="d" width="24" height="12" x="9" y="8" maskUnits="userSpaceOnUse" style="mask-type:alpha"><path fill="#fff" fill-rule="evenodd" d="M9.75 8h22.5v12H9.75V8Z" clip-rule="evenodd"/></mask><g fill-rule="evenodd" clip-rule="evenodd" mask="url(#d)"><path fill="#23875F" d="M9.75 8 21 14 9.75 20V8Zm22.5 0L21 14l11.25 6V8Z"/><path fill="#C51918" d="M21 18c2.485 0 4.5-1.79 4.5-4s-2.015-4-4.5-4-4.5 1.79-4.5 4 2.015 4 4.5 4Z"/><path fill="#FECA00" d="m20.92 15.313-2.33 1.437.745-2.46-1.71-1.572 2.316-.085.98-2.433.98 2.433h2.311l-1.706 1.656.855 2.315-2.44-1.29Z"/></g><path fill="#FECA00" fill-rule="evenodd" d="m12.874 6.442 1.273-.702 1.333.631-.467-1.131.933-.81h-1.264l-.535-1.188-.536 1.189-1.265.041.934.768-.406 1.202Zm6.75 0 1.273-.702 1.333.631-.467-1.131.933-.81h-1.264l-.535-1.188-.536 1.189-1.265.041.934.768-.406 1.202Zm8.023-.702-1.273.702.407-1.202-.935-.768 1.265-.041.536-1.19.535 1.19h1.264l-.933.809.467 1.131-1.333-.63ZM12.873 24.167l1.273-.702 1.333.631-.467-1.13.933-.81H14.68l-.535-1.189-.536 1.189-1.265.041.934.768-.406 1.202Zm8.023-.702-1.273.702.406-1.202-.934-.768 1.265-.041.536-1.189.535 1.189h1.264l-.933.81.467 1.13-1.333-.63Zm5.477.702 1.273-.702 1.333.631-.467-1.13.933-.81H28.18l-.535-1.189-.536 1.189-1.265.041.934.768-.406 1.202Z" clip-rule="evenodd"/><g fill-rule="evenodd" clip-rule="evenodd"><path fill="#C51918" d="M12.714 14.772s.606.48.936.643c.114-.384-.14-1.252-.14-1.252-.072-.208-.853-.58-.853-.58s-.22.655.057 1.189Z"/><path fill="#FECA00" d="M13.345 15.93s-1.556-.646-1.714-1.56c-.158-.913.177-2.37.177-2.37s2.527.51 2.699 1.606c.172 1.095-.399 1.783-.399 1.783s-.584-1.335-1.136-1.483c0 0 0 1.323.373 2.024Z"/></g></g></g></g><defs><clipPath id="b"><rect width="36" height="24" x="3" y="2" fill="#fff" rx="2"/></clipPath><filter id="a" width="42" height="30" x="0" y="0" color-interpolation-filters="sRGB" filterUnits="userSpaceOnUse"><feFlood flood-opacity="0" result="BackgroundImageFix"/><feColorMatrix in="SourceAlpha" result="hardAlpha" values="0 0 0 0 0 0 0 0 0 0 0 0 0 0 0 0 0 0 127 0"/><feOffset dy="1"/><feGaussianBlur stdDeviation="1"/><feColorMatrix values="0 0 0 0 0.0627451 0 0 0 0 0.0941176 0 0 0 0 0.156863 0 0 0 0.06 0"/><feBlend in2="BackgroundImageFix" result="effect1_dropShadow_91_28155"/><feColorMatrix in="SourceAlpha" result="hardAlpha" values="0 0 0 0 0 0 0 0 0 0 0 0 0 0 0 0 0 0 127 0"/><feOffset dy="1"/><feGaussianBlur stdDeviation="1.5"/><feColorMatrix values="0 0 0 0 0.0627451 0 0 0 0 0.0941176 0 0 0 0 0.156863 0 0 0 0.1 0"/><feBlend in2="effect1_dropShadow_91_28155" result="effect2_dropShadow_91_28155"/><feBlend in="SourceGraphic" in2="effect2_dropShadow_91_28155" result="shape"/></filter></defs></svg>
